!!!Genre:	Freylekhs
!!!Mode:	Minor
!!!Listening/dance:	dance
!!!One_Mode:	no
**kern
*I"P1
*clefG2
*k[b-e-]
*g:
*M2/4
*>A
=1
16gLL
(16a
16b-)
(16ccJJ
16b-LL)
(16aJ
8gJ)
=2
16gLL
(16a
16b-)
(16ccJJ
16b-LL)
(16aJ
8gJ)
=3
16gLL
(16a
16b-)
(16ccJJ
16b-LL)
(16a
16g)
(16b-JJ
=4
8a)
8r
4dd^
=5
16gLL
(16a
16b-)
(16ccJJ
16b-LL)
(16aJ
8gJ)
=6
16gLL
16a
16b-
16ccJJ
16b-LL
16aJ
8gJ
=7
8qd/
8ddL
16ccL
(16b-JJ
16aLL)
(16cc
16b-)
(16aJJ
=8
8g)
8r
4gg
=9:|!|:
*>bM
*B-:
*>B
!LO:TX:a:i:t=Bb-major
16ddLL
16ee-JJ
4ff
8ff
=10
8ggL
16ffL
16ee-JJ
16ddLL
16ccJ
8b-J
=11
8ddL
16ccL
16b-JJ
8ccTL
16b-L
16aJJ
=12
8b-L
8ddJ
8ff
8r
=13
16ddLL
16ee-JJ
4ff
8ff
=14
8ggL
16ffL
16ee-JJ
16ddLL
16ccJ
8b-J
*>eM
*g:
!LO:TX:a:i:t=G-minor
=15
8ddL
16ccL
16b-JJ
24ccLL
24dd
24ccJ
16b-L
16aJJ
=16
8g
8r
8gg
8r
=:|!
*-
